!!!OTL: IST DENN LIEBEN EIN VERBRECHEN
!!!ARE: Europa, Mitteleuropa, Deutschland; France, Elsass
!!!SCT: E0645
!!!YEM: Copyright 1995, estate of Helmut Schaffrath.
**kern
*ICvox
*Ivox
!! Mixed meters:  3/4; 4/4
*M3/4
*k[]
*C:
=1
{4G
4c
4E
=2
2D
4F
=3
4D
4B
4A
=4
4G
4E
4r}
=5
{4G
4e
4c
=6
4G
4E
4G
=7
4.B
8A
4G
=8
2E
4r}
=9
{4G
4c
4E
=10
2D
4F
=11
4D
4B
4A
=12
4G
4E
4r}
=13
{4G
4e
4c
=14
4G
4E
4G
=15
4.B
8A
4G
=16
2E
4r}
=17
{8D
8E
=18
*M4/4
4F
4G
4.B
8A
=19
*M3/4
8G
8c
2e}
=20
{8d
8c
=21
*M4/4
4B
4D
4F
8A
8G
=22
*M3/4
2E
4r}
=23
{8G
8G
=24
*M4/4
4A
4A
8d
8c
8B
8A
=25
*M3/4
8E
8A
4G
4r}
=26
{8G
8G
=27
*M4/4
4A
4G
4A
4B
=28
2c
4r}
==
!!!AGN: Liebes - Lied
!!!ONB: ESAC (Essen Associative Code) Database: ERK2
!!!AMT: irregular
!!!AIN: vox
!!!EED: Helmut Schaffrath
!!!EEV: 1.0
*-
